X: 101
T: Bubu qiang
%%abc-version 2.0
%%abcx-abcm2ps-target-version 5.9.1 (29 Sep 2008)
%%abc-creator hum2abc beta
%%abcx-conversion-date 2013/10/02 07:52:29
%%abc-edited-by Helmut Schaffrath
%%humdrum-veritas 1753703734
%%humdrum-veritas-data 444396250
%%continueall 1
%%barnumbers 0
L: 1/8
M: 4/4
K: Eb
F GB4z2 [I:setbarnb 1]| 
G B c eB2A G | 
F G F E C E F G | 
GE2FE4 | 
F2B2F G F E | 
C2>E2F3G | 
E F E C2<B,2C | 
B,4E2B, C | 
E F D CB,4 | 
B G F GB2e c | 
B2A G F G F E | 
C E F G GE2F | 
E4F3B | 
G B G EF4 | 
G G G EF4 | 
F GB4z2 | 
G B c eB2A G | 
F G F E C E F G | 
GE2FE4 | 
F2>B2 G G G E | 
F4C2F2 | 
D2C2E3C | 
E4F2C D | 
C B, A, G,B,2C D | 
C B, G, F,E,4 |]  



